X:1
T:Title
%%score ( 1 2 ) { 3 | 4 }
L:1/8
Q:1/4=95
M:4/4
K:F
V:1 treble nm="Grand Piano, Soprano"
V:2 treble 
V:3 treble nm="Choir Pad, Vilnius, P. P. Bliss 1838-1876"
V:4 bass 
V:1
 F>[FG] [FA]2- [FA][FA] [EA]>G | [EG]>A F4 C2 | [CE]>[CF] [EG]2- [EG][EG] [EG]>[_E^F] | %3
w: By~Philip~Paul~Bliss~(1838\-1876) * * * * * *|||
 [EG]>[GB] [FA]6 | [FA]>[GB] [Ac]2- [Ac][Ac] [Ac]>[GB] | [FA]>[GB] [Ac]6 | %6
w: |||
 [Ac]>[Ad] [_Ae]2- [Ae][Ae] [Ae]>d | [_Ac]>=B [=Ac]6 | [Ec]>[Ec] [Fc]2- [Fc][FA] [FB]2 | %9
w: |||
 [Fd]2 c4 A2 | F>[FG] [FA]2- [FA][FA] [FA]>G | [FG]>A [EG]6 | [Ec]>[Ec] [Fc]2- [Fc][FA] [FB]2 | %13
w: ||||
 [Fd]2 c4 A2 | F>[FG] [FA]2- [FA][FA] [EA]>G | [EG]>A F6- | F2 z2 z4 |] %17
w: ||||
V:2
 x8 | x8 | x8 | x8 | x8 | x8 | x8 | x8 | x8 | z2 F6 | x8 | x8 | x8 | z2 F6 | x8 | x8 | x8 |] %17
V:3
 A,>B, C2- CC C2 | B,2 A,6 | C>C C2- CC C2 | C2 C6 | F>F F2- FC C2 | C2 C6 | %6
 A,>A, =B,2- B,B,[K:treble] E2 | E>D C6 | B,>[K:bass]B, A,2- A,C D2 | B,2 A,4 C2 | %10
 A,>B,[K:treble] C2- CC =B,2 | =B,2 C6 | B,>B, A,2- A,C D2 | B,2 A,4 C2 | %14
 =B,>B,[K:treble] C2- CC C2 | B,2 A,6- | A,2 z2 z4 |] %17
V:4
 F,>F, F,2- F,F, C,2 | C,2 F,6 | C,>C, C,2- C,C, C,2 | C,2 F,6 | F,>F, F,2- F,F, F,2 | F,2 F,6 | %6
 F,>F, E,2- E,E, C,2 | E,2 A,6 | G,>G, F,2- F,F, F,2 | F,2 F,6 | F,>F, F,2- F,F, D,2 | D,2 C,6 | %12
 C,>C, F,2- F,F, F,2 | F,2 F,6 | D,>D, C,2- C,C, C,2 | C,2 F,6- | F,2 z2 z4 |] %17

